build/img/svg/twitter.svg

<svg width="30" height="30" viewBox="0 0 30 30" fill="none" xmlns="http://www.w3.org/2000/svg">
<g clip-path="url(#clip0_81_9472)">
<path d="M9.4377 27.1874C20.7557 27.1874 26.9479 17.8083 26.9479 9.67727C26.9479 9.41359 26.942 9.14406 26.9303 8.88039C28.1348 8.00927 29.1744 6.93026 30 5.69406C28.8782 6.19319 27.6871 6.51917 26.4674 6.66086C27.7516 5.89107 28.7132 4.68178 29.1738 3.25715C27.9657 3.97314 26.6445 4.4782 25.2668 4.7507C24.3385 3.76439 23.1112 3.11133 21.7746 2.8925C20.438 2.67367 19.0665 2.90125 17.8722 3.54006C16.6779 4.17887 15.7273 5.19332 15.1673 6.42658C14.6074 7.65984 14.4693 9.04321 14.7744 10.3628C12.3281 10.2401 9.93492 9.60457 7.74998 8.49756C5.56503 7.39056 3.63712 5.83674 2.09121 3.93684C1.3055 5.29149 1.06507 6.8945 1.41879 8.42005C1.77251 9.94561 2.69383 11.2792 3.99551 12.1499C3.01829 12.1189 2.06247 11.8558 1.20703 11.3823V11.4585C1.20616 12.8801 1.69762 14.2582 2.59789 15.3584C3.49815 16.4586 4.75165 17.2131 6.14531 17.4937C5.24007 17.7414 4.28998 17.7774 3.36855 17.5991C3.76182 18.8217 4.52697 19.8911 5.55721 20.6579C6.58746 21.4247 7.8314 21.8507 9.11543 21.8765C6.93553 23.5888 4.24272 24.5176 1.4707 24.5132C0.979109 24.5125 0.487999 24.4823 0 24.423C2.81607 26.2296 6.09191 27.1892 9.4377 27.1874Z" fill="white" fill-opacity="0.7"/>
</g>
<defs>
<clipPath id="clip0_81_9472">
<rect width="30" height="30" fill="white"/>
</clipPath>
</defs>
</svg>

<svg width="30" height="30" fill="none" xmlns="http://www.w3.org/2000/svg"><g clip-path="url(#clip0_81_9472)"><path d="M9.438 27.187c11.318 0 17.51-9.379 17.51-17.51 0-.263-.006-.533-.018-.797A12.5 12.5 0 0030 5.694c-1.122.5-2.313.825-3.533.967a6.188 6.188 0 002.707-3.404 12.371 12.371 0 01-3.907 1.494 6.163 6.163 0 00-10.493 5.612A17.48 17.48 0 012.091 3.937a6.162 6.162 0 001.905 8.213 6.161 6.161 0 01-2.789-.768v.077a6.152 6.152 0 004.938 6.035 6.117 6.117 0 01-2.776.105 6.167 6.167 0 005.746 4.277A12.344 12.344 0 010 24.424a17.46 17.46 0 009.438 2.764z" fill="#fff" fill-opacity=".7"/></g><defs><clipPath id="clip0_81_9472"><path fill="#fff" d="M0 0h30v30H0z"/></clipPath></defs></svg>
